img/icons/instruments/tom.svg

<svg fill="none" viewBox="0 0 16 16" xmlns="http://www.w3.org/2000/svg"><path d="m8 1c4.67 0 7 1.31 7 2.92v8.58c0 0.0487-7e-3 0.0958-0.02 0.14-0.282 1.5-3.3 2.45-6.98 2.45-3.58 0-6.53-0.902-6.95-2.33l-0.0297-0.124c-0.0144-0.0434-0.0213-0.0905-0.0213-0.139v-8.58c0-1.61 2.33-2.92 7-2.92zm6 4.56c-1.1 0.77-3.1 1.28-6 1.28-2.9 0-4.9-0.505-6-1.28l1.2e-4 6.85c0 0.781 2.68 1.68 6 1.68 3.32 0 6-0.901 6-1.68l1e-3 -6.85zm-8.5 2.44c0.276 0 0.5 0.224 0.5 0.5v3.5c0 0.276-0.224 0.5-0.5 0.5s-0.5-0.224-0.5-0.5v-3.5c0-0.276 0.224-0.5 0.5-0.5zm5 0c0.276 0 0.5 0.224 0.5 0.5v3.5c0 0.276-0.224 0.5-0.5 0.5s-0.5-0.224-0.5-0.5v-3.5c0-0.276 0.224-0.5 0.5-0.5zm-2.5-6c-3.9 0-6 0.95-6 1.92s2.1 1.92 6 1.92c3.9 0 6-0.95 6-1.92s-2.1-1.92-6-1.92z" fill="#000"/></svg>

<svg xmlns="http://www.w3.org/2000/svg" viewBox="0 0 16 16" fill="none">
  <path fill="#000"
    d="M8 1c4.667 0 7 1.306 7 2.917V12.5a.501.501 0 0 1-.02.14c-.282 1.497-3.301 2.451-6.98 2.451-3.576 0-6.53-.902-6.949-2.328l-.03-.123A.444.444 0 0 1 1 12.5V3.917C1 2.307 3.333 1 8 1Zm6.001 4.558c-1.097.77-3.097 1.276-6.001 1.276-2.903 0-4.903-.506-6-1.275v6.85c0 .781 2.684 1.682 6 1.682s6-.9 6-1.682l.001-6.851ZM5.5 8a.5.5 0 0 1 .5.5V12a.5.5 0 0 1-1 0V8.5a.5.5 0 0 1 .5-.5Zm5 0a.5.5 0 0 1 .5.5V12a.5.5 0 0 1-1 0V8.5a.5.5 0 0 1 .5-.5ZM8 2c-3.9 0-6 .95-6 1.917 0 .967 2.1 1.917 6 1.917s6-.95 6-1.917C14 2.95 11.9 2 8 2Z" />
</svg>
